X: 19
T:Bonnet Makers of Dundee,The. JMP.019
M:2/4
L:1/8
Q:320
C:"20"
S:John Miller MS. Perth, 1799.(for the fife)
R:Reel
O:Scotland
A:Perth
N:
H:1799
Z:vmp.C.  Graebe
K:G major
Eeef | e2 dB | defd | eBdA |!
 Beef | e2 dB | ABdF | E/E/E"qu" E2 :|!
|:F/F/F FE | DEFA | B/B/B BA | Bdef |!
 dBAF | DEFA | BdAF | E/E/E "1"E2 :|]
